X:1     %Music
T:Migildi magildi
B:Singing Together, Spring 1975, BBC Publications
F:http://www.folkinfo.org/songs
M:4/4     %Meter
L:1/8     %
K:E
ec BG cB (GF) |(3:2EEE (3:2EEE CD E2 |
w:What a fine and plea-sant sight_ Mi-gil-di ma-gil-di hey now now, 
Bc BG Bc BG |(3:2EEE (3:2EEE CD E2 |
w:Is a smi-thy warm and bright_ Mi-gil-di ma-gil-di hey now now, 
B/c/d e3/2e/ dB cB |(3:2Bcd (3:2efe dB c2 |
w:From_ the an-vil gay sparks glan-cing Mi-gil-di ma-gil-di hey now now, 
ec BG ec BG |(3:2EEE (3:2E1EE CD E2 |]
w:'Neath the black-smith's ham-mer dan-cing Mi-gil-di ma-gil-di hey now now. 